X:030
T:Plato’s Advice TS.030
M:C|
L:1/8
Q:1/2=50
S:Thomas Sands’ MS,1810,Lincolnshire
R:air
O:England;Lincolnshire
Z:vmp.Ruairidh Greig, 2011
K:G
“_Slow”(GA)|”tr”B2AG “as written”d2cB|{ef}g2=feHd2e|edcB{d}”tr”c2>B2|
A2dcc2B2|A2AdHd2^c2|defgHa2g|fed=cB2G2|F2A2d4:|
|:d|(d/e/=f) ed{d}”tr”c2>B2|(c/B/A) (dc)”tr”B2>B|~e2>d2 “tr”c2>B2|(A/e/d) (c/B/A/G/) {G}”tr”F2>e2|
d2>F2HG2>e2|dcBAB2 (e/f/g)|fedcHd2(d/e/f)|edcB {d}”tr”c2>B2|
AGFE HD2d/e/f|”tr”g3c2BAB d/c/B/A/|G2A2G4:|]

